!!!COM: Anonymous
!!!CDT: [?]
!!!OTL@@LAT: Alleluia lauda eum
!!!TXO: Latin
!!!ODT: 
!!!GTL: Hymnbook E
!!!ARL: Opactwo św. Wojciecha, Staniątki 
!!!voices:	3
**kern	**kern	**text	**kern	**text
*staff3	*staff2	*staff2	*staff1	*staff1
*I"Basso	*I"Canto II	*	*I"Canto I	*
=1-	=1-	=1-	=1-	=1-
*clefF4	*clefG2	*	*clefG2	*
*k[b-]	*k[b-]	*	*k[b-]	*
*met(c|)	*met(c|)	*	*met(c|)	*
*M2/2	*M2/2	*	*M2/2	*
1F	1a	Al-	1cc	Al-
=2	=2	=2	=2	=2
1BB-	1b-	-le-	1dd	-le-
=3	=3	=3	=3	=3
2.F\	1a	-lu-	1cc	-lu-
4E\	.	.	.	.
=4	=4	=4	=4	=4
*M3/2	*M3/2	*	*M3/2	*
4D\	1.f	-ia	2a/	-ia
4E\	.	.	.	.
1F	.	.	1f	.
=5	=5	=5	=5	=5
1F	1a	Lau-	1cc	Lau-
2BB-/	2b-\	-da	2dd\	-da
=6	=6	=6	=6	=6
*met(c|)	*met(c|)	*	*met(c|)	*
*M2/2	*M2/2	*	*M2/2	*
1F	1a	e-	1cc	e-
=7	=7	=7	=7	=7
1F	1f	-um	1a	-um
=8	=8	=8	=8	=8
!!linebreak:original
1D	1f	qui	1a	qui
=9	=9	=9	=9	=9
1C	1e	na-	1g	na-
=10	=10	=10	=10	=10
1F	1f	-sci	1a	-sci
=11	=11	=11	=11	=11
*M3/2	*M3/2	*	*M3/2	*
1F	1a	vo-	1cc	vo-
2E\	2g/	-lu-	2b-\	-lu-
=12	=12	=12	=12	=12
*met(c|)	*met(c|)	*	*met(c|)	*
*M2/2	*M2/2	*	*M2/2	*
1F	1f	-it	1a	-it
=13	=13	=13	=13	=13
2D\	2f/	Cri-	2a/	Cri-
2D\	2f/	-mi-	2a/	-mi-
=14	=14	=14	=14	=14
1D	1f	-na	1a	-na
=15	=15	=15	=15	=15
!!linebreak:original
1C	1e	no-	1g	no-
=16	=16	=16	=16	=16
1F	1f	-stra	1a	-stra
=17	=17	=17	=17	=17
1AA	1a	ab-	1cc	ab-
=18	=18	=18	=18	=18
1C	1g	-lu-	1b-	-lu-
=19	=19	=19	=19	=19
2F\	[1f	-it	[1a	-it
2E\	.	.	.	.
=20	=20	=20	=20	=20
2D\	1f]	.	1a]	.
2C/	.	.	.	.
=21	=21	=21	=21	=21
1D	1f	Lau-	1a	Lau-
=22	=22	=22	=22	=22
1BB-	1d	-da	1b-	-da
=23	=23	=23	=23	=23
1C	1e	e-	1g	e-
=24	=24	=24	=24	=24
1F	1f	-um.	1a	-um.
==	==	==	==	==
*-	*-	*-	*-	*-
!!!GTL: Hymnbook E
!!!EFL: 27/117
!!!YEM: Creative Commons CC/BY/NC/SA 4.0
!!!ENC: Marcin Konik
!!!END: 
!!!EED: Marcin Konik
!!!EEV: 
!!!ONB: Translated from MusicXML and edited by Marcin Konik
!!!CharacterEncoding: utf-8
!!!RDF**kern: l=long note in original notation
!!!RDF**kern: i=editorial accidental
!!muse2ps: z14jc180F
